svgs/batterytool.svg

<svg xmlns="http://www.w3.org/2000/svg" viewBox="0 0 192 192"><path d="M175.345 87.146c-1.03-.044-2.039-.163-3.079-.163-41.167-.002-74.638 34.374-76.266 77.396-1.628-43.022-35.099-77.398-76.266-77.398-1.039 0-2.049.12-3.079.163-.04 1.086-.155 2.152-.155 3.248 0 44.54 34.215 80.645 76.422 80.645 1.039 0 2.049-.12 3.078-.163 1.029.044 2.038.163 3.078.163 42.207 0 76.422-36.105 76.422-80.645 0-1.094-.114-2.159-.155-3.246Z" fill="none" stroke="#000" stroke-width="12" stroke-linecap="round" stroke-linejoin="round"/><path d="M96 102.254c5.3-9.677 23.015-24 23.015-24A114.82 114.82 0 0 0 96 20.963a114.817 114.817 0 0 0-23.015 57.29S90.7 92.577 96 102.254Z" fill="none" stroke="#000" stroke-width="12" stroke-linecap="round" stroke-linejoin="round"/></svg>

<svg
    xmlns="http://www.w3.org/2000/svg"
    viewBox="0 0 192 192"
    id="vector">
    <path
        id="path"
        d="M 175.345 87.146 C 174.315 87.102 173.306 86.983 172.266 86.983 C 131.099 86.981 97.628 121.357 96 164.379 C 94.372 121.357 60.901 86.981 19.734 86.981 C 18.695 86.981 17.685 87.101 16.655 87.144 C 16.615 88.23 16.5 89.296 16.5 90.392 C 16.5 134.932 50.715 171.037 92.922 171.037 C 93.961 171.037 94.971 170.917 96 170.874 C 97.029 170.918 98.038 171.037 99.078 171.037 C 141.285 171.037 175.5 134.932 175.5 90.392 C 175.5 89.298 175.386 88.233 175.345 87.146 Z"
        fill="none"
        stroke="#000000"
        stroke-width="12"
        stroke-linecap="round"
        stroke-linejoin="round"/>
    <path
        id="path_1"
        d="M 96 102.254 C 101.3 92.577 119.015 78.254 119.015 78.254 C 116.717 57.412 108.756 37.594 96 20.963 C 83.244 37.594 75.283 57.411 72.985 78.253 C 72.985 78.253 90.7 92.577 96 102.254 Z"
        fill="none"
        stroke="#000000"
        stroke-width="12"
        stroke-linecap="round"
        stroke-linejoin="round"/>
</svg>
